X:1
T:Far Off Lands, 76.76 D
T:Hemmets Koral Bok, 1921
T:Far Off Lands, 76.76 D
T:Public Domain
C:Hemmets Koral Bok, 1921
Z:Public Domain
%%score ( 1 2 ) ( 3 4 )
L:1/8
M:4/4
K:D
V:1 treble 
V:2 treble 
V:3 bass 
V:4 bass 
V:1
 A2 | [Fd]3 [FA] (GF)([CE]D) | [DA]2 [CA]2 z2 [A,G]2 | ([A,F][=CA])(GE) [A,D]2 [A,^C]2 | %4
 [A,D]6 A2 | [Fd]3 [FA] (GF)([CE]D) | [DA]2 [CA]2 z2 [A,G]2 | ([A,F][=CA])(GE) [A,D]2 [A,^C]2 | %8
 [A,D]6 D2 | [CE]2 D2 [EG]2 [DF]2 | [DF]2 [CE]2 z2 [CE]2 | [DF]3 [EF] [Dd]2 (B^G) | [CA]6 A2 | %13
 [Fd]3 [FA] (GF)([CE]D) | [DA]2 [CA]2 z2 [A,G]2 | ([A,F][=CA])(GE) [A,D]2 [A,^C]2 | [A,D]6 |] %17
V:2
 A2 | x4 E2 x2 | x8 | x2 B,2 x4 | x6 A2 | x4 D2 x2 | x8 | x2 B,2 x4 | x6 D2 | x2 D2 x4 | x8 | %11
 x6 D2 | x6 A2 | x4 D2 x2 | x8 | x2 B,2 x4 | x6 |] %17
V:3
 A,2 | A,3 A, (B,A,)(G,F,) | [A,,E,]4 z2 [C,E,]2 | D,2 (D,G,) [A,,F,]2 (E,G,) | [D,F,]6 A,2 | %5
 [D,A,]3 [D,A,] (B,A,)(G,F,) | [A,,E,]2 [A,,E,]2 z2 [C,E,]2 | D,2 (D,G,) [A,,F,]2 (E,G,) | %8
 [D,F,]6 [F,A,]2 | [G,A,]2 [F,A,]2 [C,A,]2 [D,A,]2 | [A,,A,]2 [A,,A,]2 z2 [A,,A,]2 | %11
 [D,A,]3 [C,^A,] [B,,B,]2 (^G,B,) | [A,,A,]6 A,2 | [D,A,]3 [D,A,] (B,A,)(G,F,) | %14
 [A,,E,]2 [A,,E,]2 z2 [C,E,]2 | D,2 (D,G,) [A,,F,]2 (E,G,) | [D,F,]6 |] %17
V:4
 A,2 | D,4 D,4 | x8 | D,2 G,,2 x A,,2 x | x6 A,2 | x4 D,2 D,2 | x8 | D,2 G,,2 x A,,2 x | x8 | x8 | %10
 x8 | x6 E,2 | x6 A,2 | x4 E,2 D,2 | x8 | D,2 G,,2 x A,,2 x | x6 |] %17

